X:10
T:Rakes' Waltz
C:Mike Mahar
L:1/8
Q:1/4=140
M:3/4
K:G
dc |: " "B3c BA | G2 A2 B2 | ""c3B AG | ""E4 GE | ""D3G A2 |
 B2 A2 G2 | ""A2 B2 c2 | ""A4 dc | ""B3c BA | G2 A2 B2 | ""c3B AG |
 ""E4 GE | ""D3G A2 | B2 A2 G2 | ""D2 G2 F2 | |1 ""G4 dc :|2 ""G4 FG |
|: ""A3B AF | D2 F2 A2 | ""B3c BA | G4 FG | ""A3B AF | D2 F2 A2 |
""G2 d2 ""^c2 | ""d4 dc | ""B3c BA | G2 A2 B2 | ""c3B AG | ""E4 GE |
 ""D3G A2 | B2 A2 G2 | ""D2 G2 F2 |1 ""G4 FG :|2 ""G6 |]

